svgs/duotone/microphone.svg

<svg xmlns="http://www.w3.org/2000/svg" viewBox="0 0 384 512"><!-- Font Awesome Pro 6.0.0-alpha2 by @fontawesome - https://fontawesome.com License - https://fontawesome.com/license (Commercial License) --><defs><style>.fa-secondary{opacity:.4}</style></defs><path d="M368 216V256C368 344.906 301.719 418.469 216 430.219V464H256C274.195 464 288.842 479.186 287.962 497.572C287.569 505.784 280.222 512 272 512H112C103.778 512 96.431 505.785 96.038 497.572C95.158 479.186 109.807 464 128 464H168V429.844C79.969 417.719 16 337.812 16 248.156V216C16 202.745 26.745 192 40 192H40C53.255 192 64 202.745 64 216V250.934C64 317.147 117.664 379.57 183.746 383.738C258.034 388.423 320 329.329 320 256V216C320 202.745 330.745 192 344 192H344C357.255 192 368 202.745 368 216Z" class="fa-secondary"/><path d="M192 352C245.031 352 288 309.031 288 256V96C288 42.969 245.031 0 192 0S96 42.969 96 96V256C96 309.031 138.969 352 192 352Z" class="fa-primary"/></svg>

<svg xmlns="http://www.w3.org/2000/svg" viewBox="0 0 384 512"><!--! Font Awesome Pro 6.3.0 by @fontawesome - https://fontawesome.com License - https://fontawesome.com/license (Commercial License) Copyright 2023 Fonticons, Inc. --><defs><style>.fa-secondary{opacity:.4}</style></defs><path class="fa-primary" d="M192 352c53.03 0 96-42.97 96-96v-160c0-53.03-42.97-96-96-96s-96 42.97-96 96v160C96 309 138.1 352 192 352z"/><path class="fa-secondary" d="M368 215.1V256c0 88.91-66.28 162.5-152 174.2V464H256c18.2 0 32.84 15.19 31.96 33.57C287.6 505.8 280.2 512 272 512h-160c-8.222 0-15.57-6.216-15.96-14.43C95.16 479.2 109.8 464 128 464h40v-34.15C79.97 417.7 16 337.8 16 248.1V215.1C16 202.7 26.75 192 40 192S64 202.7 64 215.1L63.1 250.9c0 66.21 53.66 128.6 119.7 132.8C258 388.4 320 329.3 320 256V215.1C320 202.7 330.7 192 344 192S368 202.7 368 215.1z"/></svg>
